X:1
T:It Is Glory to Talk with Him
T:Albert Chistopher Fisher, 1921
T:It Is Glory to Talk with Him
T:Public Domain
T:Public Domain
T:Public Domain
C:Albert Chistopher Fisher, 1921
Z:Public Domain
%%score ( 1 2 ) ( 3 4 )
L:1/8
M:4/4
K:Bb
V:1 treble 
V:2 treble 
V:3 bass 
V:4 bass 
V:1
 [DF][DB] | [Fd][Fd][=E^c][Fd] [G=e][Fd][F=c][FB] | [Ec][EG][EG][EG] [EG]2 [FA][FB] | %3
w: 1.~When the|cares of life op- press you And the|load is hard to bear; When your|
w: 2.~Tri- als|great will o- ver- take you In this|sin- ful world be- low; Je- sus|
w: 3.~He will|ne- ver tire of hear- ing When to|Him you pray or plead; You will|
w: 4.~All the|way from earth to glor- y With the|Sav- ior you may go; Tell- ing|
 [Ec][Ec][D=B][Ec] [Fd][Fc][FG][FA] | [=EB][EB][EA][EG] (F_E)[DF][DB] | %5
w: trou- bles great dis- tress you And there’s|none who seems to care; * Talk to|
w: ne- ver will for- sake you, If to|Him in faith you go; * Storms of|
w: find His grace so cheer- ing, In the|try- ing hour of need; * And your|
w: o’er and o’er the stor- y, Let- ting|hap- py prais- es flow; * Tell it|
 [Fd][Fd][=E^c][Fd] [G=e][Fd][F=c][FB] | [Gc][EG][EG][EG] [Ge]2 [Gc][Gd] | %7
w: sus, He will bless you And your ev-|ery bur- den share; It is glor-|
w: can ne- ver shake you, If His keep-|ing grace you know; It is glor-|
w: will soon be clear- ing, For His power|is great in- deed; It is glor-|
w: the young and hoar- y, That His love|they all may know; It is glor-|
 [Ff] [Fd]2 [Ge] [Fd]2 [Ec]2 | [DB]6 ||"^Refrain" [DF][DB] | [Fd] [Fd]2 [=E^c] [Fd]2 [G=e]2 | %11
w: y to talk with Him.||||
w: y to talk with Him.||||
w: y to talk with Him.||||
w: y to talk with Him.||||
 [Fd] [Ec]2 [D=B] [Ec]2 [EF][EA] | [Ec] [Ec]2 [D=B] [Ec]2 [Fd]2 | [Ec] [DB]2 [EG] [DF]3 F | %14
w: |||
w: |||
w: |||
w: |||
 [EG][E^F][EG][FA] [GB]2 [FA][EG] | [EG][DF][^C=E][DF] [Fd]2 [G^c][Gd] | %16
w: ||
w: ||
w: ||
w: ||
 [Ff] [Fd]2 [Ge] [Fd]2 [Ec]2 | [DB]6 |] %18
w: ||
w: ||
w: ||
w: ||
V:2
 x2 | x8 | x8 | x8 | x4 F2 x2 | x8 | x8 | x8 | x6 || x2 | x8 | x8 | x8 | x7 F | x8 | x8 | x8 | %17
w: ||||Je-|||||||||||||
w: ||||life|||||||||||||
w: ||||sky|||||||||||||
w: ||||to|||||||||||||
 x6 |] %18
w: |
w: |
w: |
w: |
V:3
 [B,,B,][B,,B,] | [B,,B,][B,,B,][B,,B,][B,,B,] [B,,B,][B,,B,][C,A,][D,B,] | %2
w: ~ ~|~ ~ ~ ~ ~ ~ ~ ~|
 [E,G,][E,B,][E,B,][E,B,] [E,B,]2 [E,C][D,B,] | %3
w: ~ ~ ~ ~ ~ ~ ~|
 [F,A,][F,A,][F,^G,][F,A,] [F,B,][F,A,][F,B,][F,A,] | %4
w: ~ ~ ~ ~ ~ ~ ~ ~|
 [C,G,][C,G,][C,C][C,B,] [F,A,]2 [B,,B,][B,,B,] | %5
w: ~ ~ ~ ~ ~ ~ ~|
 [B,,B,][B,,B,][B,,B,][B,,B,] [B,,B,][B,,B,][C,A,][D,B,] | %6
w: ~ ~ ~ ~ ~ ~ ~ ~|
 [E,B,][E,B,][E,B,][E,B,] [C,C]2 [E,B,][E,B,] | [D,B,] [B,,B,]2 [E,B,] [F,B,]2 (A,F,) | [B,,F,]6 || %9
w: ~ ~ ~ ~ ~ ~ ~|~ ~ ~ ~ ~ *|It|
 [B,,B,][B,,B,] | [B,,B,] [B,,B,]2 [B,,B,] [B,,B,]2 [B,,B,]2 | %11
w: is glor-|y to talk with Him|
 [F,A,] [F,A,]2 [F,^G,] [F,A,]2 [F,A,][F,C] | [F,A,] [F,A,]2 [F,^G,] [F,A,]2 [F,A,]2 | %13
w: ev- ery day; It is glor-|y to walk with Him|
 [B,,B,] [B,,B,]2 [B,,B,] [B,,B,]3 [D,B,] | [E,B,][E,A,][E,B,][E,B,] [E,E]2 [E,B,][E,B,] | %15
w: all the way; My path|is nev- er dim as I walk|
 [B,,B,][B,,B,]B,[_A,B,] [G,=B,]2 [E,_B,][E,B,] | [D,B,] [B,,B,]2 [E,B,] [F,B,]2 (A,F,) | %17
w: and talk with Him, It is glor-|to talk with Him. * *|
 [B,,F,]6 |] %18
w: |
V:4
 x2 | x8 | x8 | x8 | x8 | x8 | x8 | x6 [F,,F,]2 | x6 || x2 | x8 | x8 | x8 | x8 | x8 | x2 B, x5 | %16
w: |||||||~||||||||y|
 x6 F,2 | x6 |] %18
w: ||

